src/assets/logo-light.svg

<svg width="127" height="32" viewBox="0 0 127 32" fill="none" xmlns="http://www.w3.org/2000/svg">
<path d="M0 14.759C0 10.4511 0 8.29713 0.6443 6.57768C1.67184 3.83546 3.83546 1.67184 6.57768 0.6443C8.29713 0 10.4511 0 14.759 0V0C16.5319 0 17.4184 0 18.2661 0.144948C19.6133 0.375295 20.9 0.875799 22.0488 1.61635C22.7716 2.08234 23.4251 2.68134 24.732 3.87934L26.5 5.5L27.1209 6.06441C28.6542 7.45836 29.4209 8.15534 30.0138 8.95699C30.9025 10.1585 31.5144 11.5418 31.8057 13.0076C32 13.9856 32 15.0217 32 17.094V17.094C32 21.5397 32 23.7626 31.3146 25.5302C30.2849 28.1855 28.1855 30.2849 25.5302 31.3146C23.7626 32 21.5397 32 17.094 32H16C10.526 32 7.78897 32 5.68281 30.9704C3.65729 29.9801 2.01985 28.3427 1.02964 26.3172C0 24.211 0 21.474 0 16V14.759Z" fill="url(#paint0_linear_894_7)"/>
<path d="M0 14.759C0 10.4511 0 8.29713 0.6443 6.57768C1.67184 3.83546 3.83546 1.67184 6.57768 0.6443C8.29713 0 10.4511 0 14.759 0V0C16.5319 0 17.4184 0 18.2661 0.144948C19.6133 0.375295 20.9 0.875799 22.0488 1.61635C22.7716 2.08234 23.4251 2.68134 24.732 3.87934L26.5 5.5L27.1209 6.06441C28.6542 7.45836 29.4209 8.15534 30.0138 8.95699C30.9025 10.1585 31.5144 11.5418 31.8057 13.0076C32 13.9856 32 15.0217 32 17.094V17.094C32 21.5397 32 23.7626 31.3146 25.5302C30.2849 28.1855 28.1855 30.2849 25.5302 31.3146C23.7626 32 21.5397 32 17.094 32H16C10.526 32 7.78897 32 5.68281 30.9704C3.65729 29.9801 2.01985 28.3427 1.02964 26.3172C0 24.211 0 21.474 0 16V14.759Z" fill="url(#paint1_linear_894_7)"/>
<g filter="url(#filter0_i_894_7)">
<path d="M1.99994 15.5853C1.99994 11.3073 1.99994 9.16832 2.79693 7.51911C3.58224 5.89405 4.89399 4.5823 6.51905 3.79699C8.16825 3 10.3073 3 14.5853 3V3C16.1748 3 16.9696 3 17.731 3.1491C18.486 3.29694 19.2157 3.55292 19.8977 3.90912C20.5854 4.26835 21.206 4.76485 22.4472 5.75783L23.9999 7L26.6862 9.68629C27.6407 10.6407 28.1179 11.1179 28.4982 11.6476C29.217 12.6486 29.6948 13.8021 29.8943 15.0181C29.9999 15.6616 29.9999 16.3365 29.9999 17.6863V17.6863C29.9999 20.7707 29.9999 22.3129 29.5803 23.5569C28.7819 25.9238 26.9238 27.782 24.5569 28.5804C23.3128 29 21.7706 29 18.6862 29H14.9999C10.3307 29 7.99604 29 6.22877 28.0554C4.83334 27.3095 3.69044 26.1666 2.94457 24.7712C1.99994 23.0039 1.99994 20.6693 1.99994 16V15.5853Z" fill="#151515"/>
</g>
<g filter="url(#filter1_d_894_7)">
<rect x="7.11102" y="11.4445" width="10.6667" height="2.84444" rx="1.42222" fill="black"/>
</g>
<g filter="url(#filter2_d_894_7)">
<path d="M7.11102 19.9778C7.11102 19.1923 7.74777 18.5556 8.53325 18.5556L22.5777 18.5556C23.3632 18.5556 23.9999 19.1923 23.9999 19.9778V19.9778C23.9999 20.7633 23.3632 21.4 22.5777 21.4L8.53325 21.4C7.74777 21.4 7.11102 20.7633 7.11102 19.9778V19.9778Z" fill="black"/>
</g>
<path d="M50.5723 26H43.6953V5.62891H50.7227C52.7461 5.62891 54.4915 6.04362 55.959 6.87305C57.4264 7.69336 58.5566 8.86458 59.3496 10.3867C60.1426 11.8997 60.5391 13.6999 60.5391 15.7871C60.5391 17.8926 60.1426 19.7109 59.3496 21.2422C58.5566 22.7643 57.4128 23.9401 55.918 24.7695C54.4323 25.5898 52.6504 26 50.5723 26ZM47.3047 22.9102H50.3809C52.5957 22.9102 54.2318 22.2904 55.2891 21.0508C56.3555 19.8021 56.8887 18.0475 56.8887 15.7871C56.8887 13.5449 56.36 11.8086 55.3027 10.5781C54.2454 9.33854 52.6413 8.71875 50.4902 8.71875H47.3047V22.9102ZM69.2278 26.3281C67.8059 26.3281 66.5618 26.0137 65.4954 25.3848C64.429 24.7467 63.595 23.8626 62.9934 22.7324C62.401 21.6022 62.1048 20.2897 62.1048 18.7949C62.1048 17.3001 62.401 15.9876 62.9934 14.8574C63.595 13.7181 64.429 12.8294 65.4954 12.1914C66.5618 11.5534 67.8059 11.2344 69.2278 11.2344C70.6406 11.2344 71.8802 11.5534 72.9466 12.1914C74.0221 12.8294 74.8561 13.7181 75.4485 14.8574C76.0501 15.9876 76.3509 17.3001 76.3509 18.7949C76.3509 20.2897 76.0501 21.6022 75.4485 22.7324C74.8561 23.8626 74.0221 24.7467 72.9466 25.3848C71.8802 26.0137 70.6406 26.3281 69.2278 26.3281ZM69.2278 23.4434C70.3307 23.4434 71.2102 23.0286 71.8665 22.1992C72.5227 21.3698 72.8509 20.235 72.8509 18.7949C72.8509 17.3548 72.5227 16.2155 71.8665 15.377C71.2102 14.5384 70.3307 14.1191 69.2278 14.1191C68.1158 14.1191 67.2317 14.5384 66.5755 15.377C65.9192 16.2064 65.5911 17.3457 65.5911 18.7949C65.5911 20.235 65.9192 21.3698 66.5755 22.1992C67.2317 23.0286 68.1158 23.4434 69.2278 23.4434ZM84.8482 26.3281C83.4446 26.3281 82.2095 26.0091 81.1431 25.3711C80.0858 24.7331 79.261 23.849 78.6685 22.7188C78.0852 21.5885 77.7935 20.2806 77.7935 18.7949C77.7935 17.3092 78.0852 16.0013 78.6685 14.8711C79.261 13.7318 80.0858 12.8431 81.1431 12.2051C82.2095 11.5579 83.4446 11.2344 84.8482 11.2344C86.0604 11.2344 87.1405 11.4714 88.0884 11.9453C89.0364 12.4102 89.7974 13.0573 90.3716 13.8867C90.955 14.707 91.2968 15.6549 91.397 16.7305H88.0201C87.8925 15.9557 87.5598 15.3268 87.022 14.8438C86.4934 14.3516 85.7824 14.1055 84.8892 14.1055C83.759 14.1055 82.8749 14.5293 82.2369 15.377C81.5989 16.2246 81.2798 17.3639 81.2798 18.7949C81.2798 20.2168 81.5989 21.3516 82.2369 22.1992C82.8749 23.0378 83.759 23.457 84.8892 23.457C85.7916 23.457 86.4934 23.2201 86.9947 22.7461C87.496 22.263 87.8287 21.6204 87.9927 20.8184H91.397C91.315 21.8757 90.9823 22.819 90.399 23.6484C89.8248 24.4779 89.0591 25.1341 88.1021 25.6172C87.1542 26.0911 86.0696 26.3281 84.8482 26.3281ZM93.6053 26V5.62891H97.2147V15.459C97.7433 14.8392 98.272 14.224 98.8006 13.6133C99.3384 13.0026 99.8716 12.3874 100.4 11.7676L105.814 5.62891H110.271L102.437 14.4473L110.408 26H106.197L100.004 16.8809L97.2147 20.0391V26H93.6053ZM111.892 26V11.5625H115.337V26H111.892ZM113.614 9.41602C113.022 9.41602 112.53 9.22917 112.138 8.85547C111.746 8.47266 111.55 8.00326 111.55 7.44727C111.55 6.89128 111.746 6.42643 112.138 6.05273C112.53 5.67904 113.022 5.49219 113.614 5.49219C114.198 5.49219 114.685 5.67904 115.077 6.05273C115.469 6.42643 115.665 6.89128 115.665 7.44727C115.665 8.00326 115.469 8.47266 115.077 8.85547C114.685 9.22917 114.198 9.41602 113.614 9.41602ZM125.954 11.5625V14.3379H123.014V21.8574C123.014 22.377 123.119 22.737 123.329 22.9375C123.538 23.1289 123.921 23.2246 124.477 23.2246H125.954V26H123.875C122.408 26 121.319 25.7038 120.608 25.1113C119.906 24.5189 119.555 23.6029 119.555 22.3633V14.3379H117.039V11.5625H119.555V7.625H123.014V11.5625H125.954Z" fill="url(#paint2_linear_894_7)"/>
<defs>
<filter id="filter0_i_894_7" x="1.99994" y="3" width="28" height="26" filterUnits="userSpaceOnUse" color-interpolation-filters="sRGB">
<feFlood flood-opacity="0" result="BackgroundImageFix"/>
<feBlend mode="normal" in="SourceGraphic" in2="BackgroundImageFix" result="shape"/>
<feColorMatrix in="SourceAlpha" type="matrix" values="0 0 0 0 0 0 0 0 0 0 0 0 0 0 0 0 0 0 127 0" result="hardAlpha"/>
<feOffset dx="1" dy="-1.5"/>
<feComposite in2="hardAlpha" operator="arithmetic" k2="-1" k3="1"/>
<feColorMatrix type="matrix" values="0 0 0 0 1 0 0 0 0 1 0 0 0 0 1 0 0 0 0.1 0"/>
<feBlend mode="normal" in2="shape" result="effect1_innerShadow_894_7"/>
</filter>
<filter id="filter1_d_894_7" x="3.55547" y="7.8889" width="17.7778" height="9.95556" filterUnits="userSpaceOnUse" color-interpolation-filters="sRGB">
<feFlood flood-opacity="0" result="BackgroundImageFix"/>
<feColorMatrix in="SourceAlpha" type="matrix" values="0 0 0 0 0 0 0 0 0 0 0 0 0 0 0 0 0 0 127 0" result="hardAlpha"/>
<feOffset/>
<feGaussianBlur stdDeviation="1.77778"/>
<feComposite in2="hardAlpha" operator="out"/>
<feColorMatrix type="matrix" values="0 0 0 0 1 0 0 0 0 1 0 0 0 0 1 0 0 0 0.6 0"/>
<feBlend mode="normal" in2="BackgroundImageFix" result="effect1_dropShadow_894_7"/>
<feBlend mode="normal" in="SourceGraphic" in2="effect1_dropShadow_894_7" result="shape"/>
</filter>
<filter id="filter2_d_894_7" x="3.55547" y="15" width="24" height="9.95556" filterUnits="userSpaceOnUse" color-interpolation-filters="sRGB">
<feFlood flood-opacity="0" result="BackgroundImageFix"/>
<feColorMatrix in="SourceAlpha" type="matrix" values="0 0 0 0 0 0 0 0 0 0 0 0 0 0 0 0 0 0 127 0" result="hardAlpha"/>
<feOffset/>
<feGaussianBlur stdDeviation="1.77778"/>
<feComposite in2="hardAlpha" operator="out"/>
<feColorMatrix type="matrix" values="0 0 0 0 1 0 0 0 0 1 0 0 0 0 1 0 0 0 0.6 0"/>
<feBlend mode="normal" in2="BackgroundImageFix" result="effect1_dropShadow_894_7"/>
<feBlend mode="normal" in="SourceGraphic" in2="effect1_dropShadow_894_7" result="shape"/>
</filter>
<linearGradient id="paint0_linear_894_7" x1="7.5" y1="2" x2="35.3006" y2="16.5658" gradientUnits="userSpaceOnUse">
<stop stop-color="#7F52FF"/>
<stop offset="0.3125" stop-color="#3DBAAA"/>
<stop offset="0.660263" stop-color="#DFA75E"/>
<stop offset="1" stop-color="#FF856A"/>
</linearGradient>
<linearGradient id="paint1_linear_894_7" x1="-2.12193e-07" y1="32" x2="36.5284" y2="23.8724" gradientUnits="userSpaceOnUse">
<stop stop-color="#3A1C71"/>
<stop offset="0.5" stop-color="#D76D77"/>
<stop offset="1" stop-color="#FFCA7B"/>
</linearGradient>
<linearGradient id="paint2_linear_894_7" x1="84.5" y1="6" x2="84.5" y2="26" gradientUnits="userSpaceOnUse">
<stop/>
<stop offset="1" stop-color="#555555"/>
</linearGradient>
</defs>
</svg>

<svg xmlns="http://www.w3.org/2000/svg" width="127" height="32" fill="none" viewBox="0 0 127 32"><path fill="url(#a)" d="M0 14.759c0-4.308 0-6.462.644-8.181A10.13 10.13 0 0 1 6.578.644C8.298 0 10.45 0 14.759 0c1.773 0 2.66 0 3.507.145 1.347.23 2.634.73 3.783 1.471.723.466 1.376 1.065 2.683 2.263L26.5 5.5l.62.564c1.534 1.394 2.3 2.091 2.894 2.893a10.1 10.1 0 0 1 1.792 4.05c.194.979.194 2.015.194 4.087 0 4.446 0 6.669-.685 8.436a10.13 10.13 0 0 1-5.785 5.785C23.763 32 21.54 32 17.094 32H16c-5.474 0-8.211 0-10.317-1.03a10.13 10.13 0 0 1-4.653-4.653C0 24.211 0 21.474 0 16z"/><path fill="url(#b)" d="M0 14.759c0-4.308 0-6.462.644-8.181A10.13 10.13 0 0 1 6.578.644C8.298 0 10.45 0 14.759 0c1.773 0 2.66 0 3.507.145 1.347.23 2.634.73 3.783 1.471.723.466 1.376 1.065 2.683 2.263L26.5 5.5l.62.564c1.534 1.394 2.3 2.091 2.894 2.893a10.1 10.1 0 0 1 1.792 4.05c.194.979.194 2.015.194 4.087 0 4.446 0 6.669-.685 8.436a10.13 10.13 0 0 1-5.785 5.785C23.763 32 21.54 32 17.094 32H16c-5.474 0-8.211 0-10.317-1.03a10.13 10.13 0 0 1-4.653-4.653C0 24.211 0 21.474 0 16z"/><g filter="url(#c)"><path fill="#151515" d="M2 15.585c0-4.278 0-6.417.797-8.066a8 8 0 0 1 3.722-3.722C8.17 3 10.307 3 14.585 3c1.59 0 2.385 0 3.146.15a8 8 0 0 1 2.167.76c.687.358 1.308.855 2.55 1.848L24 7l2.686 2.686c.955.955 1.432 1.432 1.812 1.962a8 8 0 0 1 1.396 3.37c.106.644.106 1.319.106 2.668 0 3.085 0 4.627-.42 5.87a8 8 0 0 1-5.023 5.024c-1.244.42-2.786.42-5.87.42H15c-4.67 0-7.004 0-8.771-.945a8 8 0 0 1-3.284-3.284C2 23.004 2 20.67 2 16z"/></g><g filter="url(#d)"><rect width="10.667" height="2.844" x="7.111" y="11.444" fill="#000" rx="1.422"/></g><g filter="url(#e)"><path fill="#000" d="M7.111 19.978c0-.786.637-1.422 1.422-1.422h14.045a1.422 1.422 0 0 1 0 2.844H8.533a1.42 1.42 0 0 1-1.422-1.422"/></g><path fill="url(#f)" d="M50.572 26h-6.877V5.629h7.028q3.035 0 5.236 1.244 2.201 1.23 3.39 3.514 1.19 2.27 1.19 5.4 0 3.159-1.19 5.455a8.37 8.37 0 0 1-3.431 3.528Q53.689 26 50.572 26m-3.267-3.09h3.076q3.322 0 4.908-1.86 1.6-1.872 1.6-5.263 0-3.363-1.586-5.209-1.587-1.86-4.813-1.86h-3.185zm21.923 3.418q-2.133 0-3.733-.943a6.7 6.7 0 0 1-2.502-2.653q-.888-1.695-.888-3.937t.888-3.938q.903-1.709 2.502-2.666 1.6-.957 3.733-.957 2.119 0 3.719.957a6.54 6.54 0 0 1 2.501 2.666q.903 1.695.903 3.938 0 2.242-.903 3.937a6.56 6.56 0 0 1-2.501 2.653q-1.6.943-3.72.943m0-2.885q1.654 0 2.639-1.244t.984-3.404-.984-3.418-2.64-1.258q-1.667 0-2.651 1.258-.985 1.245-.985 3.418 0 2.16.985 3.404.984 1.244 2.652 1.244m15.62 2.885q-2.105 0-3.705-.957-1.585-.957-2.475-2.652-.875-1.695-.875-3.924t.875-3.924q.89-1.71 2.475-2.666 1.6-.97 3.705-.97 1.819 0 3.24.71a5.86 5.86 0 0 1 2.284 1.942q.875 1.23 1.025 2.843H88.02q-.19-1.161-.998-1.886-.793-.738-2.133-.739-1.695 0-2.652 1.272t-.957 3.418q0 2.133.957 3.404.957 1.258 2.652 1.258 1.354 0 2.106-.71.752-.726.998-1.929h3.404q-.123 1.587-.998 2.83-.861 1.245-2.297 1.97-1.421.71-3.254.71M93.605 26V5.629h3.61v9.83q.792-.93 1.586-1.846.805-.916 1.599-1.845l5.414-6.14h4.457l-7.834 8.82L110.408 26h-4.211l-6.193-9.12-2.79 3.16V26zm18.287 0V11.563h3.445V26zm1.722-16.584q-.888 0-1.476-.56a1.9 1.9 0 0 1-.588-1.409q0-.833.588-1.394t1.476-.56q.876 0 1.463.56t.588 1.394q0 .835-.588 1.408-.588.561-1.463.561m12.34 2.146v2.776h-2.94v7.52q0 .779.315 1.08.314.286 1.148.287h1.477V26h-2.079q-2.2 0-3.267-.889-1.053-.888-1.053-2.748v-8.025h-2.516v-2.775h2.516V7.624h3.459v3.938z"/><defs><linearGradient id="a" x1="7.5" x2="35.301" y1="2" y2="16.566" gradientUnits="userSpaceOnUse"><stop stop-color="#7f52ff"/><stop offset=".313" stop-color="#3dbaaa"/><stop offset=".66" stop-color="#dfa75e"/><stop offset="1" stop-color="#ff856a"/></linearGradient><linearGradient id="b" x1="0" x2="36.528" y1="32" y2="23.872" gradientUnits="userSpaceOnUse"><stop stop-color="#3a1c71"/><stop offset=".5" stop-color="#d76d77"/><stop offset="1" stop-color="#ffca7b"/></linearGradient><linearGradient id="f" x1="84.5" x2="84.5" y1="6" y2="26" gradientUnits="userSpaceOnUse"><stop/><stop offset="1" stop-color="#555"/></linearGradient><filter id="c" width="28" height="26" x="2" y="3" color-interpolation-filters="sRGB" filterUnits="userSpaceOnUse"><feFlood flood-opacity="0" result="BackgroundImageFix"/><feBlend in="SourceGraphic" in2="BackgroundImageFix" result="shape"/><feColorMatrix in="SourceAlpha" result="hardAlpha" values="0 0 0 0 0 0 0 0 0 0 0 0 0 0 0 0 0 0 127 0"/><feOffset dx="1" dy="-1.5"/><feComposite in2="hardAlpha" k2="-1" k3="1" operator="arithmetic"/><feColorMatrix values="0 0 0 0 1 0 0 0 0 1 0 0 0 0 1 0 0 0 0.1 0"/><feBlend in2="shape" result="effect1_innerShadow_894_7"/></filter><filter id="d" width="17.778" height="9.956" x="3.555" y="7.889" color-interpolation-filters="sRGB" filterUnits="userSpaceOnUse"><feFlood flood-opacity="0" result="BackgroundImageFix"/><feColorMatrix in="SourceAlpha" result="hardAlpha" values="0 0 0 0 0 0 0 0 0 0 0 0 0 0 0 0 0 0 127 0"/><feOffset/><feGaussianBlur stdDeviation="1.778"/><feComposite in2="hardAlpha" operator="out"/><feColorMatrix values="0 0 0 0 1 0 0 0 0 1 0 0 0 0 1 0 0 0 0.6 0"/><feBlend in2="BackgroundImageFix" result="effect1_dropShadow_894_7"/><feBlend in="SourceGraphic" in2="effect1_dropShadow_894_7" result="shape"/></filter><filter id="e" width="24" height="9.956" x="3.555" y="15" color-interpolation-filters="sRGB" filterUnits="userSpaceOnUse"><feFlood flood-opacity="0" result="BackgroundImageFix"/><feColorMatrix in="SourceAlpha" result="hardAlpha" values="0 0 0 0 0 0 0 0 0 0 0 0 0 0 0 0 0 0 127 0"/><feOffset/><feGaussianBlur stdDeviation="1.778"/><feComposite in2="hardAlpha" operator="out"/><feColorMatrix values="0 0 0 0 1 0 0 0 0 1 0 0 0 0 1 0 0 0 0.6 0"/><feBlend in2="BackgroundImageFix" result="effect1_dropShadow_894_7"/><feBlend in="SourceGraphic" in2="effect1_dropShadow_894_7" result="shape"/></filter></defs></svg>
